X:38
M:6/4
L:1/4
Q:3/4=100
K:A
a | A>BAc>BAB>cB | A>BAa>gfe.dc | A>BAc>BAB>cB | a>bfg>fea2A ||
bBbg>fec>BA | BbBbc'ab2B | cdefgag>fe | cdBc>BAa2A ||
aA/B/c/A/ cA/B/c/A/ cA/B/c/A/ | ac/A/c/A/af/g/a/f/b2B |
aA/B/c/A/ cA/B/c/A/cA/B/c/A/ | abfg>fea2A ||

